icons/op-group-16.svg

<svg width="16" height="16" viewBox="0 0 16 16" fill="none" xmlns="http://www.w3.org/2000/svg">
<path d="M2.00067 7.99734L4.00067 8.00001C4.17042 8.0007 4.33352 8.06611 4.4567 8.18292C4.57988 8.29973 4.65386 8.45912 4.66355 8.6286C4.67325 8.79808 4.61792 8.96487 4.50887 9.09496C4.39981 9.22505 4.24524 9.30864 4.07667 9.32868L4 9.33334L2.66667 9.33068V12.666L4 12.6667C4.16329 12.6667 4.32089 12.7266 4.44292 12.8352C4.56494 12.9437 4.6429 13.0932 4.662 13.2553L4.66667 13.3333C4.66665 13.4966 4.6067 13.6542 4.49819 13.7763C4.38969 13.8983 4.24017 13.9762 4.078 13.9953L4 14H2C1.83671 14 1.67911 13.94 1.55709 13.8315C1.43506 13.723 1.35711 13.5735 1.338 13.4113L1.33334 13.3333V8.66401C1.33323 8.5004 1.39329 8.34247 1.50209 8.22027C1.61088 8.09808 1.76081 8.02016 1.92334 8.00134L2.00067 7.99734ZM14 11.3333C14.1699 11.3335 14.3334 11.3986 14.4569 11.5152C14.5805 11.6319 14.6548 11.7913 14.6648 11.9609C14.6747 12.1306 14.6196 12.2976 14.5105 12.4279C14.4014 12.5582 14.2467 12.6419 14.078 12.662L14 12.6667H6C5.83008 12.6665 5.66665 12.6014 5.54309 12.4848C5.41953 12.3681 5.34518 12.2087 5.33522 12.0391C5.32526 11.8695 5.38045 11.7024 5.48951 11.5721C5.59857 11.4418 5.75327 11.3581 5.922 11.338L6 11.3333H14ZM14 9.33334C14.1699 9.33353 14.3334 9.3986 14.4569 9.51524C14.5805 9.63189 14.6548 9.79131 14.6648 9.96094C14.6747 10.1306 14.6196 10.2976 14.5105 10.4279C14.4014 10.5582 14.2467 10.6419 14.078 10.662L14 10.6667H6C5.83008 10.6665 5.66665 10.6014 5.54309 10.4848C5.41953 10.3681 5.34518 10.2087 5.33522 10.0391C5.32526 9.86945 5.38045 9.70242 5.48951 9.57212C5.59857 9.44182 5.75327 9.35808 5.922 9.33801L6 9.33334H14ZM4 1.33334C4.16992 1.33353 4.33336 1.3986 4.45691 1.51524C4.58047 1.63189 4.65483 1.79131 4.66478 1.96094C4.67474 2.13057 4.61955 2.2976 4.51049 2.4279C4.40143 2.5582 4.24673 2.64194 4.078 2.66201L4 2.66668H2.66667V5.99668H4C4.16329 5.9967 4.32089 6.05665 4.44292 6.16515C4.56494 6.27366 4.6429 6.42318 4.662 6.58534L4.66667 6.66334C4.66665 6.82663 4.6067 6.98424 4.49819 7.10626C4.38969 7.22828 4.24017 7.30624 4.078 7.32534L4 7.33001H2C1.83671 7.32999 1.67911 7.27004 1.55709 7.16153C1.43506 7.05303 1.35711 6.90351 1.338 6.74134L1.33334 6.66334V2.00001C1.33336 1.83672 1.39331 1.67912 1.50181 1.5571C1.61032 1.43507 1.75984 1.35711 1.922 1.33801L2 1.33334H4ZM14 4.66668C14.1699 4.66687 14.3334 4.73193 14.4569 4.84858C14.5805 4.96522 14.6548 5.12465 14.6648 5.29427C14.6747 5.4639 14.6196 5.63093 14.5105 5.76123C14.4014 5.89153 14.2467 5.97527 14.078 5.99534L14 6.00001H6C5.83008 5.99982 5.66665 5.93476 5.54309 5.81811C5.41953 5.70147 5.34518 5.54204 5.33522 5.37241C5.32526 5.20279 5.38045 5.03576 5.48951 4.90546C5.59857 4.77515 5.75327 4.69141 5.922 4.67134L6 4.66668H14ZM14 2.66668C14.1699 2.66687 14.3334 2.73193 14.4569 2.84858C14.5805 2.96522 14.6548 3.12465 14.6648 3.29427C14.6747 3.4639 14.6196 3.63093 14.5105 3.76123C14.4014 3.89153 14.2467 3.97527 14.078 3.99534L14 4.00001H6C5.83008 3.99982 5.66665 3.93476 5.54309 3.81811C5.41953 3.70147 5.34518 3.54204 5.33522 3.37241C5.32526 3.20279 5.38045 3.03576 5.48951 2.90546C5.59857 2.77515 5.75327 2.69141 5.922 2.67134L6 2.66668H14Z" fill="#1F2328"/>
</svg>

<svg xmlns="http://www.w3.org/2000/svg" width="16" height="16" viewBox="0 0 16 16"><path d="m2.001 7.997 2 .003a.668.668 0 0 1 .508 1.095.668.668 0 0 1-.432.234L4 9.333l-1.333-.002v3.335L4 12.667a.67.67 0 0 1 .662.588l.005.078a.663.663 0 0 1-.589.662L4 14H2a.67.67 0 0 1-.662-.589l-.005-.078V8.664a.666.666 0 0 1 .59-.663l.078-.004ZM14 11.333a.666.666 0 0 1 .078 1.329l-.078.005H6a.67.67 0 0 1-.51-1.095.666.666 0 0 1 .432-.234L6 11.333h8Zm0-2a.666.666 0 0 1 .078 1.329l-.078.005H6a.67.67 0 0 1-.51-1.095.666.666 0 0 1 .432-.234L6 9.333h8Zm-10-8a.67.67 0 0 1 .51 1.095.666.666 0 0 1-.432.234L4 2.667H2.667v3.33H4a.67.67 0 0 1 .662.588l.005.078a.663.663 0 0 1-.589.662L4 7.33H2a.67.67 0 0 1-.662-.589l-.005-.078V2a.665.665 0 0 1 .589-.662L2 1.333h2Zm10 3.334a.665.665 0 0 1 .078 1.328L14 6H6a.665.665 0 0 1-.51-1.095.666.666 0 0 1 .432-.234L6 4.667h8Zm0-2a.665.665 0 0 1 .078 1.328L14 4H6a.665.665 0 0 1-.51-1.095.666.666 0 0 1 .432-.234L6 2.667h8Z"/></svg>
